X:1
T:Martinique, CMD
T:Martinique, CMD
T:Willard P. Morris, 1895
T:Public Domain Courtesy of the Cyber Hymnal™
C:Willard P. Morris, 1895
Z:Public Domain
Z:Courtesy of the Cyber Hymnal™
%%score ( 1 2 ) ( 3 4 )
L:1/8
Q:1/4=103
M:6/8
K:Bb
V:1 treble 
V:2 treble 
V:3 bass 
V:4 bass 
V:1
 [DF] | [DB]2 [DF] ([DF][^C=E])[DF] | [FA]2 [EG] [EG]2 [EG] | [DF]2 [DF] [EG]2 [CE] | %4
 [B,D]3- [B,D]2 [DF] | [DB]2 [DF] ([DF][^C=E])[DF] | [FA]2 [EG] [EG]2 [EG] | %7
 [DF]2 [DF] [EG]2 [EA] | [DB]3- [DB]2 [DB] | [Ec]2 [Ec] (AG)[EA] | [DB]2 [Ec] [Fd]2 [DB] | %11
 [EG]2 [FB] [Fe]2 [Fd] | [F-d]3 [Fc]2 [Fc] | [Fd]2 [Ec] [DB]2 [DF] | [FA]2 [EG] [EG]2 [Gc] | %15
 [FB]2 [FB] (AG)[EA] | [DB]3- [DB]2 |] %17
V:2
 x | x6 | x6 | x6 | x6 | x6 | x6 | x6 | x6 | x3 E2 x | x6 | x6 | x6 | x6 | x6 | x3 E2 x | x5 |] %17
V:3
 [B,,B,] | [B,,F,]2 [B,,B,] [B,,B,]2 [B,,B,] | [E,B,]2 [E,B,] [E,B,]2 [E,B,] | %3
 [F,B,]2 [F,B,] [F,A,]2 F, | [B,,F,]3- [B,,F,]2 [B,,B,] | [B,,F,]2 [B,,B,] [B,,B,]2 [B,,B,] | %6
 [E,B,]2 [E,B,] [E,B,]2 [E,B,] | [F,B,]2 [F,B,] [F,A,]2 F, | [B,,F,]3- [B,,F,]2 [B,,F,] | %9
 [F,A,]2 [F,A,] [F,C]2 [F,C] | B,2 B, B,2 [B,,B,] | [E,B,]2 [D,B,] [C,A,]2 [B,,B,] | %12
 [F,-B,]3 [F,A,]2 [F,A,] | [B,,B,]2 [B,,F,] [B,,F,]2 [B,,B,] | [E,B,]2 [E,B,] [E,B,]2 [E,E] | %15
 [F,D]2 [F,D] [F,C]2 [F,C] | [B,,B,]3- [B,,B,]2 |] %17
V:4
 x | x6 | x6 | x5 F, | x6 | x6 | x6 | x5 F, | x6 | x6 | B,2 B, B,2 x | x6 | x6 | x6 | x6 | x6 | %16
 x5 |] %17

